Sources/FrostedUI/Resources/Icons.xcassets/paperAirplaneFilledUp20.imageset/paper-airplane-filled-up-20.svg

<svg width="20" height="20" viewBox="0 0 20 20" fill="none" xmlns="http://www.w3.org/2000/svg" data-fui-icon="true">
  <path
    d="M9.21833 0.477026L0.089328 18.781C-0.24092 19.4452 0.398608 20.1787 1.12201 19.9607L8.3665 17.4422C8.70461 17.3397 8.94575 17.0473 8.97458 16.7011L10.002 8.09407L11.0295 16.7011C11.0583 17.0473 11.2994 17.3397 11.6375 17.4422L18.8794 19.9607C19.6028 20.1787 20.2423 19.4478 19.9095 18.781L10.7805 0.474464C10.6127 0.138493 10.3742 0 9.99939 0C9.62459 0 9.38608 0.135929 9.21833 0.474464V0.477026Z"
    fill="currentColor"
  />
</svg>

<svg xmlns="http://www.w3.org/2000/svg" width="20" height="20" fill="none" data-fui-icon="true" viewBox="0 0 20 20"><path fill="currentColor" d="M9.218.477.09 18.781c-.33.664.31 1.398 1.033 1.18l7.245-2.519a.85.85 0 0 0 .608-.74l1.027-8.608 1.027 8.607c.03.346.27.639.608.741l7.242 2.519c.724.218 1.363-.513 1.03-1.18L10.782.474C10.613.138 10.374 0 9.999 0c-.374 0-.613.136-.78.474z"/></svg>
